style/svgs/types/date.svg

<?xml version="1.0" encoding="UTF-8"?>
<svg width="100px" height="100px" viewBox="0 0 100 100" version="1.1" xmlns="http://www.w3.org/2000/svg" xmlns:xlink="http://www.w3.org/1999/xlink">
    <title>Artboard Copy 291</title>
    <g id="Artboard-Copy-291" stroke="none" stroke-width="1" fill="none" fill-rule="evenodd">
        <path d="M82.2373307,93 C87.1739421,93 90.8685399,91.7932283 93.3211239,89.379685 C95.773708,86.9661416 97,83.3458265 97,78.5187398 L97,21.4812602 C97,16.6541735 95.773708,13.0338584 93.3211239,10.620315 C90.8685399,8.20677168 87.1739421,7 82.2373307,7 L17.8098344,7 C12.8732229,7 9.17076434,8.20677168 6.70245861,10.620315 C4.23415287,13.0338584 3,16.6541735 3,21.4812602 L3,78.5187398 C3,83.3458265 4.23415287,86.9661416 6.70245861,89.379685 C9.17076434,91.7932283 12.8732229,93 17.8098344,93 L82.2373307,93 Z M82.8504767,85.4790875 L17.1023583,85.4790875 C15.0270948,85.4790875 13.4234822,84.9263082 12.2915203,83.8207496 C11.1595585,82.715191 10.5935775,81.0879957 10.5935775,78.9391635 L10.5935775,34.8881043 C10.5935775,32.7392721 11.1595585,31.1120768 12.2915203,30.0065182 C13.4234822,28.9009596 15.0270948,28.3481803 17.1023583,28.3481803 L82.8504767,28.3481803 C84.9571835,28.3481803 86.5765178,28.9009596 87.7084797,30.0065182 C88.8404415,31.1120768 89.4064225,32.7392721 89.4064225,34.8881043 L89.4064225,78.9391635 C89.4064225,81.0879957 88.8404415,82.715191 87.7084797,83.8207496 C86.5765178,84.9263082 84.9571835,85.4790875 82.8504767,85.4790875 Z M43.5619669,45.1184139 C44.3794949,45.1184139 44.9533367,44.9704871 45.2834922,44.6746334 C45.6136478,44.3787796 45.7787255,43.8260004 45.7787255,43.0162955 L45.7787255,40.2601847 C45.7787255,39.4504798 45.6136478,38.8899149 45.2834922,38.57849 C44.9533367,38.267065 44.3794949,38.1113525 43.5619669,38.1113525 L40.7792273,38.1113525 C39.9616993,38.1113525 39.3878575,38.267065 39.057702,38.57849 C38.7275464,38.8899149 38.5624686,39.4504798 38.5624686,40.2601847 L38.5624686,43.0162955 C38.5624686,43.8260004 38.7275464,44.3787796 39.057702,44.6746334 C39.3878575,44.9704871 39.9616993,45.1184139 40.7792273,45.1184139 L43.5619669,45.1184139 Z M59.2207727,45.1184139 C60.0697441,45.1184139 60.6514467,44.9704871 60.9658806,44.6746334 C61.2803144,44.3787796 61.4375314,43.8260004 61.4375314,43.0162955 L61.4375314,40.2601847 C61.4375314,39.4504798 61.2803144,38.8899149 60.9658806,38.57849 C60.6514467,38.267065 60.0697441,38.1113525 59.2207727,38.1113525 L56.4851982,38.1113525 C55.6362268,38.1113525 55.0545242,38.267065 54.7400903,38.57849 C54.4256565,38.8899149 54.2684395,39.4504798 54.2684395,40.2601847 L54.2684395,43.0162955 C54.2684395,43.8260004 54.4256565,44.3787796 54.7400903,44.6746334 C55.0545242,44.9704871 55.6362268,45.1184139 56.4851982,45.1184139 L59.2207727,45.1184139 Z M74.9267436,45.1184139 C75.7442716,45.1184139 76.3102526,44.9704871 76.6246864,44.6746334 C76.9391203,44.3787796 77.0963372,43.8260004 77.0963372,43.0162955 L77.0963372,40.2601847 C77.0963372,39.4504798 76.9391203,38.8899149 76.6246864,38.57849 C76.3102526,38.267065 75.7442716,38.1113525 74.9267436,38.1113525 L72.144004,38.1113525 C71.2950326,38.1113525 70.71333,38.267065 70.3988961,38.57849 C70.0844623,38.8899149 69.9272454,39.4504798 69.9272454,40.2601847 L69.9272454,43.0162955 C69.9272454,43.8260004 70.0844623,44.3787796 70.3988961,44.6746334 C70.71333,44.9704871 71.2950326,45.1184139 72.144004,45.1184139 L74.9267436,45.1184139 Z M27.9031611,60.3938077 C28.7206891,60.3938077 29.28667,60.2458809 29.6011039,59.9500272 C29.9155377,59.6541735 30.0727546,59.1013942 30.0727546,58.2916893 L30.0727546,55.5355785 C30.0727546,54.7258736 29.9155377,54.1730943 29.6011039,53.8772406 C29.28667,53.5813869 28.7206891,53.4334601 27.9031611,53.4334601 L25.1204215,53.4334601 C24.2714501,53.4334601 23.6897474,53.5813869 23.3753136,53.8772406 C23.0608797,54.1730943 22.9036628,54.7258736 22.9036628,55.5355785 L22.9036628,58.2916893 C22.9036628,59.1013942 23.0608797,59.6541735 23.3753136,59.9500272 C23.6897474,60.2458809 24.2714501,60.3938077 25.1204215,60.3938077 L27.9031611,60.3938077 Z M43.5619669,60.3938077 C44.3794949,60.3938077 44.9533367,60.2458809 45.2834922,59.9500272 C45.6136478,59.6541735 45.7787255,59.1013942 45.7787255,58.2916893 L45.7787255,55.5355785 C45.7787255,54.7258736 45.6136478,54.1730943 45.2834922,53.8772406 C44.9533367,53.5813869 44.3794949,53.4334601 43.5619669,53.4334601 L40.7792273,53.4334601 C39.9616993,53.4334601 39.3878575,53.5813869 39.057702,53.8772406 C38.7275464,54.1730943 38.5624686,54.7258736 38.5624686,55.5355785 L38.5624686,58.2916893 C38.5624686,59.1013942 38.7275464,59.6541735 39.057702,59.9500272 C39.3878575,60.2458809 39.9616993,60.3938077 40.7792273,60.3938077 L43.5619669,60.3938077 Z M59.2207727,60.3938077 C60.0697441,60.3938077 60.6514467,60.2458809 60.9658806,59.9500272 C61.2803144,59.6541735 61.4375314,59.1013942 61.4375314,58.2916893 L61.4375314,55.5355785 C61.4375314,54.7258736 61.2803144,54.1730943 60.9658806,53.8772406 C60.6514467,53.5813869 60.0697441,53.4334601 59.2207727,53.4334601 L56.4851982,53.4334601 C55.6362268,53.4334601 55.0545242,53.5813869 54.7400903,53.8772406 C54.4256565,54.1730943 54.2684395,54.7258736 54.2684395,55.5355785 L54.2684395,58.2916893 C54.2684395,59.1013942 54.4256565,59.6541735 54.7400903,59.9500272 C55.0545242,60.2458809 55.6362268,60.3938077 56.4851982,60.3938077 L59.2207727,60.3938077 Z M74.9267436,60.3938077 C75.7442716,60.3938077 76.3102526,60.2458809 76.6246864,59.9500272 C76.9391203,59.6541735 77.0963372,59.1013942 77.0963372,58.2916893 L77.0963372,55.5355785 C77.0963372,54.7258736 76.9391203,54.1730943 76.6246864,53.8772406 C76.3102526,53.5813869 75.7442716,53.4334601 74.9267436,53.4334601 L72.144004,53.4334601 C71.2950326,53.4334601 70.71333,53.5813869 70.3988961,53.8772406 C70.0844623,54.1730943 69.9272454,54.7258736 69.9272454,55.5355785 L69.9272454,58.2916893 C69.9272454,59.1013942 70.0844623,59.6541735 70.3988961,59.9500272 C70.71333,60.2458809 71.2950326,60.3938077 72.144004,60.3938077 L74.9267436,60.3938077 Z M27.9031611,75.7159153 C28.7206891,75.7159153 29.28667,75.5602028 29.6011039,75.2487778 C29.9155377,74.9373529 30.0727546,74.376788 30.0727546,73.5670831 L30.0727546,70.8109723 C30.0727546,70.0012674 29.9155377,69.4484881 29.6011039,69.1526344 C29.28667,68.8567807 28.7206891,68.7088539 27.9031611,68.7088539 L25.1204215,68.7088539 C24.2714501,68.7088539 23.6897474,68.8567807 23.3753136,69.1526344 C23.0608797,69.4484881 22.9036628,70.0012674 22.9036628,70.8109723 L22.9036628,73.5670831 C22.9036628,74.376788 23.0608797,74.9373529 23.3753136,75.2487778 C23.6897474,75.5602028 24.2714501,75.7159153 25.1204215,75.7159153 L27.9031611,75.7159153 Z M43.5619669,75.7159153 C44.3794949,75.7159153 44.9533367,75.5602028 45.2834922,75.2487778 C45.6136478,74.9373529 45.7787255,74.376788 45.7787255,73.5670831 L45.7787255,70.8109723 C45.7787255,70.0012674 45.6136478,69.4484881 45.2834922,69.1526344 C44.9533367,68.8567807 44.3794949,68.7088539 43.5619669,68.7088539 L40.7792273,68.7088539 C39.9616993,68.7088539 39.3878575,68.8567807 39.057702,69.1526344 C38.7275464,69.4484881 38.5624686,70.0012674 38.5624686,70.8109723 L38.5624686,73.5670831 C38.5624686,74.376788 38.7275464,74.9373529 39.057702,75.2487778 C39.3878575,75.5602028 39.9616993,75.7159153 40.7792273,75.7159153 L43.5619669,75.7159153 Z M59.2207727,75.7159153 C60.0697441,75.7159153 60.6514467,75.5602028 60.9658806,75.2487778 C61.2803144,74.9373529 61.4375314,74.376788 61.4375314,73.5670831 L61.4375314,70.8109723 C61.4375314,70.0012674 61.2803144,69.4484881 60.9658806,69.1526344 C60.6514467,68.8567807 60.0697441,68.7088539 59.2207727,68.7088539 L56.4851982,68.7088539 C55.6362268,68.7088539 55.0545242,68.8567807 54.7400903,69.1526344 C54.4256565,69.4484881 54.2684395,70.0012674 54.2684395,70.8109723 L54.2684395,73.5670831 C54.2684395,74.376788 54.4256565,74.9373529 54.7400903,75.2487778 C55.0545242,75.5602028 55.6362268,75.7159153 56.4851982,75.7159153 L59.2207727,75.7159153 Z" id="􀉉" fill="#3E3E3E" fill-rule="nonzero"></path>
    </g>
</svg>

<svg xmlns="http://www.w3.org/2000/svg" width="100" height="100"><path fill="#3E3E3E" fill-rule="nonzero" d="M82.237 93c4.937 0 8.632-1.207 11.084-3.62C95.774 86.966 97 83.346 97 78.519V21.48c0-4.827-1.226-8.447-3.679-10.86C90.87 8.206 87.174 7 82.237 7H17.81c-4.937 0-8.64 1.207-11.108 3.62C4.234 13.034 3 16.654 3 21.481V78.52c0 4.827 1.234 8.447 3.702 10.86C9.171 91.794 12.873 93 17.81 93h64.427Zm.613-7.52H17.102c-2.075 0-3.679-.554-4.81-1.66-1.132-1.105-1.698-2.732-1.698-4.88V34.887c0-2.149.566-3.776 1.698-4.881 1.131-1.106 2.735-1.659 4.81-1.659H82.85c2.107 0 3.727.553 4.858 1.659 1.132 1.105 1.698 2.732 1.698 4.881V78.94c0 2.149-.566 3.776-1.698 4.882-1.131 1.105-2.75 1.658-4.858 1.658ZM43.562 45.117c.817 0 1.391-.148 1.721-.443.33-.296.496-.849.496-1.659V40.26c0-.81-.165-1.37-.496-1.682-.33-.31-.904-.467-1.721-.467h-2.783c-.817 0-1.391.156-1.721.467-.33.312-.496.872-.496 1.682v2.756c0 .81.166 1.363.496 1.659.33.295.904.443 1.721.443h2.783Zm15.659 0c.849 0 1.43-.148 1.745-.443.314-.296.472-.849.472-1.659V40.26c0-.81-.158-1.37-.472-1.682-.315-.31-.896-.467-1.745-.467h-2.736c-.849 0-1.43.156-1.745.467-.314.312-.472.872-.472 1.682v2.756c0 .81.158 1.363.472 1.659.315.295.896.443 1.745.443h2.736Zm15.706 0c.817 0 1.383-.148 1.698-.443.314-.296.471-.849.471-1.659V40.26c0-.81-.157-1.37-.471-1.682-.315-.31-.88-.467-1.698-.467h-2.783c-.849 0-1.43.156-1.745.467-.315.312-.472.872-.472 1.682v2.756c0 .81.157 1.363.472 1.659.314.295.896.443 1.745.443h2.783ZM27.903 60.394c.818 0 1.384-.148 1.698-.444.315-.296.472-.849.472-1.658v-2.756c0-.81-.157-1.363-.472-1.659-.314-.296-.88-.444-1.698-.444H25.12c-.849 0-1.43.148-1.745.444-.314.296-.471.849-.471 1.659v2.756c0 .81.157 1.362.471 1.658.315.296.896.444 1.745.444h2.783Zm15.659 0c.817 0 1.391-.148 1.721-.444.33-.296.496-.849.496-1.658v-2.756c0-.81-.165-1.363-.496-1.659-.33-.296-.904-.444-1.721-.444h-2.783c-.817 0-1.391.148-1.721.444-.33.296-.496.849-.496 1.659v2.756c0 .81.166 1.362.496 1.658.33.296.904.444 1.721.444h2.783Zm15.659 0c.849 0 1.43-.148 1.745-.444.314-.296.472-.849.472-1.658v-2.756c0-.81-.158-1.363-.472-1.659-.315-.296-.896-.444-1.745-.444h-2.736c-.849 0-1.43.148-1.745.444-.314.296-.472.849-.472 1.659v2.756c0 .81.158 1.362.472 1.658.315.296.896.444 1.745.444h2.736Zm15.706 0c.817 0 1.383-.148 1.698-.444.314-.296.471-.849.471-1.658v-2.756c0-.81-.157-1.363-.471-1.659-.315-.296-.88-.444-1.698-.444h-2.783c-.849 0-1.43.148-1.745.444-.315.296-.472.849-.472 1.659v2.756c0 .81.157 1.362.472 1.658.314.296.896.444 1.745.444h2.783ZM27.903 75.716c.818 0 1.384-.156 1.698-.467.315-.312.472-.872.472-1.682v-2.756c0-.81-.157-1.363-.472-1.658-.314-.296-.88-.444-1.698-.444H25.12c-.849 0-1.43.148-1.745.444-.314.295-.471.848-.471 1.658v2.756c0 .81.157 1.37.471 1.682.315.311.896.467 1.745.467h2.783Zm15.659 0c.817 0 1.391-.156 1.721-.467.33-.312.496-.872.496-1.682v-2.756c0-.81-.165-1.363-.496-1.658-.33-.296-.904-.444-1.721-.444h-2.783c-.817 0-1.391.148-1.721.444-.33.295-.496.848-.496 1.658v2.756c0 .81.166 1.37.496 1.682.33.311.904.467 1.721.467h2.783Zm15.659 0c.849 0 1.43-.156 1.745-.467.314-.312.472-.872.472-1.682v-2.756c0-.81-.158-1.363-.472-1.658-.315-.296-.896-.444-1.745-.444h-2.736c-.849 0-1.43.148-1.745.444-.314.295-.472.848-.472 1.658v2.756c0 .81.158 1.37.472 1.682.315.311.896.467 1.745.467h2.736Z"/></svg>
